X: 12792
T: Fear A' Bhàta
R: waltz
M: 3/4
K: Ddorian
D4 E2|F6|F4 c2|A2 G2 F2|G6|A4 A2|A4 D2|D6|
F6|E4 D2|C6-|C4 A,2|A,4 C2|D6|D4 C2|C4 F2|
F6|G6-|G4 A2|d4 c2|A6|G4 F2|E4 C2|D6|

